X:199
T:Cembalo Sonata in G Major
C:Telemann, G.P.
M:3/4
L:1/8
Q:1/4=88
K:G
|:D2|G4 AB|c2 BA G2|A4 Bc|d4 A2|
G4 AB|c2 de f2|g2 fe dc|G4:|

